img/fb.svg

<svg width="12" height="21" viewBox="0 0 12 21" fill="none" xmlns="http://www.w3.org/2000/svg">
<path d="M10.6484 12.2339L11.1953 8.64014H7.71875V6.29639C7.71875 5.28076 8.1875 4.34326 9.75 4.34326H11.3516V1.25732C11.3516 1.25732 9.90625 0.983887 8.53906 0.983887C5.6875 0.983887 3.8125 2.7417 3.8125 5.8667V8.64014H0.609375V12.2339H3.8125V20.9839H7.71875V12.2339H10.6484Z" fill="white"/>
</svg>

<svg width="12" height="21" fill="none" xmlns="http://www.w3.org/2000/svg"><path d="M10.648 12.234l.547-3.594H7.72V6.296c0-1.015.468-1.953 2.031-1.953h1.602V1.257S9.906.984 8.539.984c-2.851 0-4.726 1.758-4.726 4.883V8.64H.608v3.594h3.204v8.75h3.906v-8.75h2.93z" fill="#fff"/></svg>
